X: 187b
T: Popcorn Behaviour
C:Jay Ungar
R:reel
M:C|
L:1/8
K:Am
(3e^f^g |:"Am" a2 e=f ecAc |"G" B2Bc BAGB |"Am" AEAc AFAc |"G" BABc "E"Be^f^g |
"Am"a2 ef ecAc |"G" B2Bc BAGE |"Dm" DFAc dcAF |1 "Am"ECDB, A,2 "E"(3e^f^g:|2"Am" ECDB, A,B,CD ||
|:"Am" EA,A,E "Fmaj7"FA,A,F |"Am" EA,A,E "G"DA,A,G, |"Am" A,B,CD E2EF |"C" GECD "E"EFED |
"Am"EA,A,E "Fmaj7"FA,A,F |"Am6" ^FA,A,^F "Fmaj7"=FA,A,F |"Dm" DFAc dcAF |1"Am" ECDB, A,B,CD:|2 ECDB, A,2 |]


